svg/bicycle.svg

<svg xmlns="http://www.w3.org/2000/svg" viewBox="0 0 24 24"><path d="M19 10c-.56 0-1.09.11-1.59.28L14.46 4.5H11V6h2.54l.88 1.72L12 13.13l-1.77-4.18c.27-.1.51-.37.51-.7 0-.41-.33-.75-.74-.75H8c-.42 0-.76.34-.76.75S7.58 9 8 9h.61l2.25 5.25h-.94C9.56 11.85 7.5 10 5 10c-2.76 0-5 2.24-5 5s2.24 5 5 5c2.5 0 4.56-1.85 4.92-4.25h2.58l2.79-6.32.79 1.53A4.98 4.98 0 0 0 14 15c0 2.76 2.24 5 5 5s5-2.24 5-5-2.24-5-5-5M5 18.5c-1.93 0-3.5-1.57-3.5-3.5s1.57-3.5 3.5-3.5c1.67 0 3.07 1.18 3.41 2.75H4v1.5h4.41A3.495 3.495 0 0 1 5 18.5m14 0c-1.93 0-3.5-1.57-3.5-3.5 0-1.08.5-2.03 1.27-2.67l1.8 3.52 1.32-.72-1.79-3.5c.29-.07.59-.13.9-.13 1.93 0 3.5 1.57 3.5 3.5s-1.57 3.5-3.5 3.5"/></svg>

<?xml version="1.0" encoding="UTF-8"?><!DOCTYPE svg PUBLIC "-//W3C//DTD SVG 1.1//EN" "http://www.w3.org/Graphics/SVG/1.1/DTD/svg11.dtd"><svg xmlns="http://www.w3.org/2000/svg" xmlns:xlink="http://www.w3.org/1999/xlink" version="1.1" id="mdi-bicycle" width="24" height="24" viewBox="0 0 24 24"><path d="M19 10C18.44 10 17.91 10.11 17.41 10.28L14.46 4.5H11V6H13.54L14.42 7.72L12 13.13L10.23 8.95C10.5 8.85 10.74 8.58 10.74 8.25C10.74 7.84 10.41 7.5 10 7.5H8C7.58 7.5 7.24 7.84 7.24 8.25S7.58 9 8 9H8.61L10.86 14.25H9.92C9.56 11.85 7.5 10 5 10C2.24 10 0 12.24 0 15S2.24 20 5 20C7.5 20 9.56 18.15 9.92 15.75H12.5L15.29 9.43L16.08 10.96C14.82 11.87 14 13.34 14 15C14 17.76 16.24 20 19 20S24 17.76 24 15 21.76 10 19 10M5 18.5C3.07 18.5 1.5 16.93 1.5 15S3.07 11.5 5 11.5C6.67 11.5 8.07 12.68 8.41 14.25H4V15.75H8.41C8.07 17.32 6.67 18.5 5 18.5M19 18.5C17.07 18.5 15.5 16.93 15.5 15C15.5 13.92 16 12.97 16.77 12.33L18.57 15.85L19.89 15.13L18.1 11.63C18.39 11.56 18.69 11.5 19 11.5C20.93 11.5 22.5 13.07 22.5 15S20.93 18.5 19 18.5Z" /></svg>
